!!!OTL: ADE ES MUSS GESCHIEDEN SEYN
!!!ARE: Europa, Mitteleuropa, Deutschland, Rheinland
!!!SCT: Z0273
!!!YEM: Copyright 1995, estate of Helmut Schaffrath.
**kern
*ICvox
*Ivox
*M4/4
*k[f#]
*G:
{4dd
=1
4b
8r
8b
8.dd
16cc
8b
8a
=2
2g
4r}
{4ee
=3
4.dd
8b
8.cc
16b
8cc
8dd
=4
2b}
{2ee
=5
4.dd
16cc
16b
8.cc
16b
8cc
8dd
=6
2b
4r}
{8.b
16a
=7
2a
4r
8.cc
16b
=8
4b
8r}
{8d
8.g
16a
8b
8cc
=9
4dd
8cc
8b
4gg
4ee
=10
2dd
4r}
{8.dd
16cc
=11
2cc
4r
8.dd
16cc
=12
2b
4r}
{4dd
=13
4.gg
8gg
4ff#
4ee
=14
2dd
4r}
{4b
=15
4dd
8cc
8b
4.dd
8cc
=16
2b
4r}
==
!!!AGN: Lyrisches Lied, Romanze, Abschieds - Lied
!!!ONB: ESAC (Essen Associative Code) Database: ZUCCAL
!!!AMT: simple quadruple
!!!AIN: vox
!!!EED: Helmut Schaffrath
!!!EEV: 1.0
*-
